X: 15549
T: Glenuig Bay
R: reel
M: 4/4
K: Bminor
|:B2AB- BF~A2-|ABce c2BA|B2fB efB2|cF~F2 ABcA|
~B2AB- BF~A2-|ABce c2BA|B2fB efa2|fe c/B/A B2z2:|
|:B2fB BaBB|fBBf ~e2fz|~A2eA AfAA|eAAf ecAF|
~B2fB BaBB|fBBf ~e2fz|~A2eA AfAA|ecAF B3A|
B2fB BaBB|fBBf ~e2fz|~A2eA AfAA|eAcf ecBA|
~B2fB BaBB|fBBf ~e2fz|~A2eA AfAA|ecAc B2z2:|

